packages/icons/plugins/Wallet.svg

<svg width="16" height="17" viewBox="0 0 16 17" xmlns="http://www.w3.org/2000/svg">
<g xmlns="http://www.w3.org/2000/svg">
        <path
            fill-rule="evenodd"
            clip-rule="evenodd"
            d="M4.15039 7.36562C4.15039 7.03425 4.41902 6.76562 4.75039 6.76562H9.25039C9.58176 6.76562 9.85039 7.03425 9.85039 7.36562C9.85039 7.697 9.58176 7.96562 9.25039 7.96562H4.75039C4.41902 7.96562 4.15039 7.697 4.15039 7.36562Z"
        />
        <path
            fill-rule="evenodd"
            clip-rule="evenodd"
            d="M3.76789 1.73125C2.56926 1.73125 1.60039 2.70012 1.60039 3.89875V7.36375C1.60039 7.69512 1.33176 7.96375 1.00039 7.96375C0.66902 7.96375 0.400391 7.69512 0.400391 7.36375V3.89875C0.400391 2.03738 1.90652 0.53125 3.76789 0.53125H7.98289C8.86905 0.53125 9.70592 0.807194 10.331 1.34332C10.9646 1.88676 11.3504 2.67378 11.3504 3.61375C11.3504 3.94512 11.0818 4.21375 10.7504 4.21375C10.419 4.21375 10.1504 3.94512 10.1504 3.61375C10.1504 3.02372 9.91741 2.56949 9.54977 2.25418C9.17361 1.93156 8.62673 1.73125 7.98289 1.73125H3.76789Z"
        />
        <path
            fill-rule="evenodd"
            clip-rule="evenodd"
            d="M4.00039 4.21563C2.67426 4.21563 1.60039 5.2895 1.60039 6.61563V11.8656C1.60039 13.1918 2.67426 14.2656 4.00039 14.2656H11.5004C12.8265 14.2656 13.9004 13.1918 13.9004 11.8656V11.3781H13.8029C12.8623 11.3781 11.8963 10.7995 11.626 9.79386L11.6251 9.7908L11.6251 9.7908C11.4195 9.00933 11.6639 8.23504 12.1876 7.72733C12.5782 7.33001 13.1131 7.10309 13.6904 7.10309H13.9004V6.61563C13.9004 5.297 12.819 4.21563 11.5004 4.21563H4.00039ZM0.400391 6.61563C0.400391 4.62675 2.01152 3.01562 4.00039 3.01562H11.5004C13.4818 3.01562 15.1004 4.63425 15.1004 6.61563V7.70309C15.1004 8.03446 14.8318 8.30309 14.5004 8.30309H13.6904C13.4312 8.30309 13.204 8.40347 13.0403 8.57169C13.0356 8.57652 13.0308 8.58127 13.0259 8.58595C12.8049 8.79806 12.6926 9.12953 12.7852 9.48385C12.8906 9.8725 13.3041 10.1781 13.8029 10.1781H14.5004C14.8318 10.1781 15.1004 10.4467 15.1004 10.7781V11.8656C15.1004 13.8545 13.4893 15.4656 11.5004 15.4656H4.00039C2.01152 15.4656 0.400391 13.8545 0.400391 11.8656V6.61563Z"
        />
        <path
            fill-rule="evenodd"
            clip-rule="evenodd"
            d="M13.6906 8.30156C13.4314 8.30156 13.2042 8.40195 13.0404 8.57016L13.0297 8.58093C12.8379 8.7682 12.731 9.03453 12.7579 9.31721L12.7586 9.32426L12.7585 9.32427C12.7963 9.77826 13.2353 10.1766 13.7806 10.1766H15.2281C15.328 10.1766 15.4006 10.0964 15.4006 10.0116V8.46658C15.4006 8.38176 15.328 8.30156 15.2281 8.30156H13.6906ZM12.186 7.72757C12.5768 7.32915 13.1124 7.10156 13.6906 7.10156H15.2281C15.9831 7.10156 16.6006 7.7114 16.6006 8.46658V10.0116C16.6006 10.7668 15.9831 11.3766 15.2281 11.3766H13.7806C12.7069 11.3766 11.6619 10.5915 11.563 9.42746C11.5014 8.76921 11.752 8.15434 12.186 7.72757Z"
        />
    </g>
</svg>

<svg xmlns="http://www.w3.org/2000/svg" width="16" height="17">
    <g xmlns="http://www.w3.org/2000/svg" fill-rule="evenodd" clip-rule="evenodd">
        <path d="M4.15 7.366a.6.6 0 0 1 .6-.6h4.5a.6.6 0 0 1 0 1.2h-4.5a.6.6 0 0 1-.6-.6Zm-.382-5.635A2.166 2.166 0 0 0 1.6 3.9v3.465a.6.6 0 0 1-1.2 0V3.899A3.366 3.366 0 0 1 3.768.53h4.215c.886 0 1.723.276 2.348.812.634.544 1.02 1.33 1.02 2.27a.6.6 0 1 1-1.2 0c0-.59-.234-1.044-.601-1.359-.376-.322-.923-.523-1.567-.523H3.768Z"/>
        <path d="M4 4.216a2.4 2.4 0 0 0-2.4 2.4v5.25a2.4 2.4 0 0 0 2.4 2.4h7.5a2.4 2.4 0 0 0 2.4-2.4v-.488h-.097c-.94 0-1.907-.579-2.177-1.584V9.79a2.11 2.11 0 0 1 .562-2.064c.39-.397.925-.624 1.502-.624h.21v-.487c0-1.319-1.081-2.4-2.4-2.4H4Zm-3.6 2.4a3.6 3.6 0 0 1 3.6-3.6h7.5c1.982 0 3.6 1.618 3.6 3.6v1.087a.6.6 0 0 1-.6.6h-.81a.895.895 0 0 0-.664.283.91.91 0 0 0-.24.898c.105.389.518.694 1.017.694h.697a.6.6 0 0 1 .6.6v1.088a3.6 3.6 0 0 1-3.6 3.6H4a3.6 3.6 0 0 1-3.6-3.6v-5.25Z"/>
        <path d="M13.69 8.302c-.259 0-.486.1-.65.268l-.01.01a.906.906 0 0 0-.272.737v.007c.038.454.477.853 1.023.853h1.447c.1 0 .173-.08.173-.165V8.467a.17.17 0 0 0-.173-.165h-1.537Zm-1.504-.574a2.09 2.09 0 0 1 1.505-.626h1.537c.755 0 1.373.61 1.373 1.365v1.545a1.37 1.37 0 0 1-1.373 1.365h-1.447c-1.074 0-2.12-.786-2.218-1.95a2.106 2.106 0 0 1 .623-1.7Z"/>
    </g>
</svg>
